X: 11675
T: Eileen O'Riordan's
R: slide
M: 12/8
K: Amixolydian
|:E2A ABA E2A ABA|e2A ABA G2A F2A|
E2A ABA E2A ABd|efe dcB A3 A3:|
|:efe edc d3 c2d|e2A ABA G2A F2A|
E2A ABA E2A ABd|efe dcB A3 A3:|

